!!!COM: Landini, Francesco
!!!CDT: ~1325///-1397/09/02/
!!!OTL: Ecco la primavera
!!!ONB: Lauda contrafactum: Preghian Ges&ugrave; con lieta cera
!!!AGN: ballate
!!!URL: http://www.cpdl.org/modules.php?op=modload&name=Downloads&file=index&req=viewsdownload&sid=686
!!!ONB: CPDL.org; edited by Sabine Cassola; added on 2003/07/31/
**kern	**text	**text	**kern	**text	**text
*staff2	*staff2	*staff2	*staff1	*staff1	*staff1
*Ivox	*Ivox	*Ivox	*Ivox	*Ivox	*Ivox
*>[A,B,B,A,A]	*>[A,B,B,A,A]	*>[A,B,B,A,A]	*>[A,B,B,A,A]	*>[A,B,B,A,A]	*>[A,B,B,A,A]
*>norep[A,B,A]	*>norep[A,B,A]	*>norep[A,B,A]	*>norep[A,B,A]	*>norep[A,B,A]	*>norep[A,B,A]
*>A	*>A	*>A	*>A	*>A	*>A
*clefGv2	*	*	*clefG2	*	*
*k[]	*	*	*k[]	*	*
*M3/4	*	*	*M3/4	*	*
*MM80	*MM80	*MM80	*MM80	*MM80	*MM80
=1-	=1-	=1-	=1-	=1-	=1-
4.d\	E-	L'er-	4.a/	E-	L'er-
8d\	-cho	-be	8g/	-cho	-be
4d\	la	con	4f#/	la	con
=2	=2	=2	=2	=2	=2
2c\	pri-	gran	4g/	pri-	gran
.	.	.	8f/L	ma	fres-
.	.	.	8e/J	.	.
4d\	ma	fres-	8f/L	.	.
.	.	.	8d/J	.	.
=3	=3	=3	=3	=3	=3
4A/	ve	che	4e/	ve	che
4A/	-ra,	-ça	4e/	-ra,	-ça
4F/	che'l	E	8f/L	che'l	E
.	.	.	8e/J	.	.
=4	=4	=4	=4	=4	=4
4G/	cor	fior'	4d/	cor	fior'
8A/	fa	co-	8c/	fa	co-
4F/	ral-	pro	4c/	ral-	pro
8G/	le	i	8B/	le	i
=5	=5	=5	=5	=5	=5
4A/	gra	pra-	4A/	gra	pra-
4A/	-re,	-ti,	4A/	-re,	-ti,
4r	.	.	4r	.	.
=6	=6	=6	=6	=6	=6
4d\	Tem-	E	4d/	Tem-	E
4c\	.	.	8c/L	.	.
.	.	.	8d/J	.	.
4B\	.	.	8c/L	.	.
.	.	.	8d/J	.	.
=7	=7	=7	=7	=7	=7
4A/	-p'è	al-	4e/	-p'è	al-
8A/	d'an-	bo	8f/	d'an-	bo
4c\	na	a-	4g/	na	a-
8d\	mo	dor	8f/	mo	dor
=8	=8	=8	=8	=8	=8
4e\	ra	na	4e/	ra	na
4e\	-re	-ti	4e/	-re	-ti
4r	.	.	4r	.	.
=9	=9	=9	=9	=9	=9
2d\	E	so-	2a/	E	so-
4d\	star	in	4f/	star	in
=10	=10	=10	=10	=10	=10
4c\	con	si-	4g/	con	si-
8A/L	lie-	-mil	12f/L	lie-	-mil
.	.	.	12e/	.	.
8B/J	.	.	.	.	.
.	.	.	12d/J	.	.
4c\	-ta	ma-	4e/	-ta	ma-
=11	=11	=11	=11	=11	=11
4d\	ce-	ne	4d/	ce-	ne
4d\	-ra.	-ra.	4d/	-ra.	-ra.
4r	.	.	4r	.	.
=12!|:	=12!|:	=12!|:	=12!|:	=12!|:	=12!|:
*>B	*>B	*>B	*>B	*>B	*>B
4.d\	Noi	In	4.d/	Noi	In
8A/	ve-	que-	8e/	ve-	que-
4A/	-giam	-sto	4f/	-giam	-sto
=13	=13	=13	=13	=13	=13
4G/	l'a-	va-	4g/	l'a-	va-
4c\	.	-go	8a/	.	.
.	.	.	4g/	e'l	-go
4B\	e'l	.	.	.	.
.	.	.	8f/	.	.
=14	=14	=14	=14	=14	=14
4d\	tem-	tem-	4a/	tem-	tem-
4e\	.	.	8a/	.	.
.	.	.	4g/	.	.
4d\	.	.	.	.	.
.	.	.	8a/	.	.
=15	=15	=15	=15	=15	=15
2f\	-po	-po	2f/	-po	-po
4r	.	.	4r	.	.
=16	=16	=16	=16	=16	=16
4d\	che	o-	4a/	che	o-
4d\	pur	-gni	4f/	pur	-gni
4c\	chiam'	co-	4g/	chiam'	co-
=17	=17	=17	=17	=17	=17
4A/	al-	à	8a/L	al-	à
.	.	.	8g/J	.	.
4B\	le	va-	12f/L	.	.
.	.	.	12e/	.	.
.	.	.	12d/J	.	.
4c\	.	.	4e/	le	va-
=18	=18	=18	=18	=18	=18
4d\	gri	ghe	4d/	gri	ghe
4d\	-a.	-ça.	4d/	-a.	-ça.
4r	.	.	4r	.	.
=:|!	=:|!	=:|!	=:|!	=:|!	=:|!
*-	*-	*-	*-	*-	*-
!!!ENC: Craig Stuart Sapp
!!!END: 2004/12/13/
